icon-themes/breeze_svg/cmd/sc_connectorline.svg

<svg viewBox="0 0 16 16" xmlns="http://www.w3.org/2000/svg">/&gt;<path d="m3.5 2c-.828427 0-1.5.6715511-1.5 1.5 0 .8283739.671573 1.5 1.5 1.5.2329951 0 .4595208-.0614501.65625-.15625l7 7c-.094794.196729-.15625.423255-.15625.65625 0 .828427.671573 1.5 1.5 1.5s1.5-.671573 1.5-1.5-.671573-1.5-1.5-1.5c-.232995 0-.459521.061456-.65625.15625l-7-7c.0947938-.1967247.15625-.4233003.15625-.65625 0-.8284489-.671573-1.5-1.5-1.5zm0 1c.2761424 0 .5.2238504.5.5s-.2238576.5-.5.5c-.2761423 0-.5-.2238504-.5-.5s.2238577-.5.5-.5zm9 9c.276142 0 .5.223858.5.5s-.223858.5-.5.5-.5-.223858-.5-.5.223858-.5.5-.5z" fill="#4d4d4d"/></svg>

<svg xmlns="http://www.w3.org/2000/svg" viewBox="0 0 16 16">
     />
 <path 
     style="fill:#4d4d4d" 
     d="M 3.5 2 C 2.671573 2 2 2.6715511 2 3.5 C 2 4.3283739 2.671573 5 3.5 5 C 3.7329951 5 3.9595208 4.9385499 4.15625 4.84375 L 11.15625 11.84375 C 11.061456 12.040479 11 12.267005 11 12.5 C 11 13.328427 11.671573 14 12.5 14 C 13.328427 14 14 13.328427 14 12.5 C 14 11.671573 13.328427 11 12.5 11 C 12.267005 11 12.040479 11.061456 11.84375 11.15625 L 4.84375 4.15625 C 4.9385438 3.9595253 5 3.7329497 5 3.5 C 5 2.6715511 4.328427 2 3.5 2 z M 3.5 3 C 3.7761424 3 4 3.2238504 4 3.5 C 4 3.7761496 3.7761424 4 3.5 4 C 3.2238577 4 3 3.7761496 3 3.5 C 3 3.2238504 3.2238577 3 3.5 3 z M 12.5 12 C 12.776142 12 13 12.223858 13 12.5 C 13 12.776142 12.776142 13 12.5 13 C 12.223858 13 12 12.776142 12 12.5 C 12 12.223858 12.223858 12 12.5 12 z "
     />
 </svg>
